packages/sources/icons/src/vitamix/badge.svg

<svg width="24" height="24" viewBox="0 0 24 24" fill="none" xmlns="http://www.w3.org/2000/svg">
<path fill-rule="evenodd" clip-rule="evenodd" d="M6.53579 16.6232L6.40985 16.5741C6.21357 16.4977 6.05846 16.3423 5.98243 16.1459L5.61355 15.1928L4.82382 14.5466C4.66105 14.4135 4.56168 14.2181 4.54993 14.0081L4.49279 12.987L3.94059 12.1273C3.82703 11.9505 3.79283 11.7342 3.84632 11.531L4.10665 10.5421L3.84632 9.55321C3.79283 9.35002 3.82703 9.13371 3.94059 8.95693L4.49279 8.09728L4.54993 7.07617C4.56168 6.86619 4.66105 6.67079 4.82382 6.53762L5.61355 5.89144L5.98243 4.93833C6.05846 4.74191 6.21357 4.5865 6.40985 4.51011L7.35959 4.14047L8.00381 3.3487C8.13694 3.18508 8.33282 3.08508 8.54343 3.07323L9.56025 3.01601L10.4165 2.46287C10.5939 2.34831 10.8113 2.3138 11.0154 2.36784L12 2.62849L12.9847 2.36784C13.1888 2.3138 13.4062 2.34831 13.5835 2.46287L14.4398 3.01601L15.4567 3.07323C15.6673 3.08508 15.8632 3.18508 15.9963 3.3487L16.6405 4.14047L17.5902 4.51011C17.7865 4.5865 17.9416 4.74191 18.0177 4.93833L18.3865 5.89144L19.1763 6.53762C19.339 6.67079 19.4384 6.86619 19.4502 7.07617L19.5073 8.09728L20.0595 8.95693C20.1731 9.13371 20.2073 9.35002 20.1538 9.55321L19.8934 10.5421L20.1538 11.531C20.2073 11.7342 20.1731 11.9505 20.0595 12.1273L19.5073 12.987L19.4502 14.0081C19.4384 14.2181 19.339 14.4135 19.1763 14.5466L18.3865 15.1928L18.0177 16.1459C17.9416 16.3423 17.7865 16.4977 17.5902 16.5741L17.4365 16.634L19.3746 19.8641C19.7329 20.4612 19.1549 21.1817 18.4944 20.9615L16.9559 20.4487L16.443 21.9872C16.2221 22.65 15.2946 22.6772 15.0352 22.0285L13.6541 18.5758L13.5835 18.6214C13.4062 18.7359 13.1888 18.7704 12.9847 18.7164L12 18.4558L11.0154 18.7164C10.8113 18.7704 10.5939 18.7359 10.4165 18.6214L10.3188 18.5582L8.93068 22.0285C8.6712 22.6772 7.74374 22.65 7.52281 21.9872L7.00998 20.4487L5.47149 20.9615C4.81092 21.1817 4.23295 20.4612 4.5912 19.8641L6.53579 16.6232ZM9.67684 18.1436L9.5602 18.0682L8.54338 18.011C8.33278 17.9991 8.1369 17.8991 8.00377 17.7355L7.35955 16.9438L7.2448 16.8991L5.23427 20.25L7.48427 19.5L8.23427 21.75L9.67684 18.1436ZM16.7275 16.9099L16.6405 16.9438L15.9963 17.7355C15.8632 17.8991 15.6673 17.9991 15.4567 18.011L14.4399 18.0682L14.296 18.1611L15.7315 21.75L16.4815 19.5L18.7315 20.25L16.7275 16.9099ZM11.9843 16.5C15.298 16.5 17.9843 13.8137 17.9843 10.5C17.9843 7.18629 15.298 4.5 11.9843 4.5C8.67056 4.5 5.98427 7.18629 5.98427 10.5C5.98427 13.8137 8.67056 16.5 11.9843 16.5ZM11.9843 12.5769L9.90735 13.5L10.4843 11.3292L8.98427 9.80769L10.8304 9.57692L11.9843 7.5L13.1381 9.57692L14.9843 9.80769L13.4843 11.3292L14.0612 13.5L11.9843 12.5769Z" fill="#001018"/>
</svg>

<svg width="24" height="24" fill="none" xmlns="http://www.w3.org/2000/svg"><path fill-rule="evenodd" clip-rule="evenodd" d="m6.536 16.623-.126-.049a.75.75 0 0 1-.428-.428l-.368-.953-.79-.646a.75.75 0 0 1-.274-.539l-.057-1.021-.552-.86a.75.75 0 0 1-.095-.596l.26-.989-.26-.989a.75.75 0 0 1 .095-.596l.552-.86.057-1.02a.75.75 0 0 1 .274-.54l.79-.646.368-.953a.75.75 0 0 1 .428-.428l.95-.37.644-.791a.75.75 0 0 1 .54-.276l1.016-.057.856-.553a.75.75 0 0 1 .6-.095l.984.26.985-.26a.75.75 0 0 1 .599.095l.856.553 1.017.057a.75.75 0 0 1 .54.276l.643.791.95.37a.75.75 0 0 1 .428.428l.369.953.79.647a.75.75 0 0 1 .273.538l.057 1.021.552.86a.75.75 0 0 1 .095.596l-.26.99.26.988a.75.75 0 0 1-.095.596l-.552.86-.057 1.021a.75.75 0 0 1-.274.539l-.79.646-.368.953a.75.75 0 0 1-.428.428l-.154.06 1.939 3.23c.358.597-.22 1.318-.88 1.098l-1.54-.513-.512 1.538c-.22.663-1.148.69-1.408.042l-1.38-3.453-.071.045a.75.75 0 0 1-.6.095l-.984-.26-.985.26a.75.75 0 0 1-.599-.095l-.097-.063-1.388 3.47c-.26.65-1.187.622-1.408-.04l-.513-1.54-1.539.514c-.66.22-1.238-.5-.88-1.098l1.945-3.24zm3.14 1.52-.116-.075-1.017-.057a.75.75 0 0 1-.54-.276l-.643-.791-.115-.045-2.01 3.351 2.25-.75.75 2.25 1.442-3.606zm7.051-1.233-.087.034-.644.791a.75.75 0 0 1-.54.276l-1.016.057-.144.093 1.436 3.589.75-2.25 2.25.75-2.005-3.34zm-4.743-.41a6 6 0 1 0 0-12 6 6 0 0 0 0 12zm0-3.923-2.077.923.577-2.17-1.5-1.522 1.846-.231L11.984 7.5l1.154 2.077 1.846.23-1.5 1.522.577 2.171-2.077-.923z" fill="#001018"/></svg>
